X: 1
T: the Mortgage Burn
C: Gordon MacLean
O: Cape Breton
B: The Lighthouse Collection, Cranford, Cape Breton
F: http://thesession.org/tunes/2047 plus ideas from a few other online transcriptions.
R: reel
M: 4/4
L: 1/8
K: A
|: AB | "A"cEBE AEF[AE] | "A"cEBE AEFA | "Bm"BFBc BFBc | "E7"dBcA BA
y2 FA | "A"cEBE AEF[AE] | "A"cEBE AEFA | "Bm"dBcA BAFE | "E7"FAAB "A"A2 :|
|: AB | "A"c2Bc e2ce | "D"fafe "A/c#"c2BA | "Bm"B2AB "A"c2Bc | "E"ecBA "(D)"F2
[1 AB | "A"c2Bc e2ce | "D"fafe "A/c#"c2BA | "Bm"B2AB "E7"cBAF | E[AF]AB "A"A2 :|
[2 cB | "A"AFEF A2AB | "A"cBce "D"f2af | "A/c#"e2cA "Bm"BcAF | "E7"E[AF]AB "A"A2 |]

%%sep 1 1 500

